icons/Tricycle_filled.svg

<svg width="24" height="24" viewBox="0 0 24 24" fill="none" xmlns="http://www.w3.org/2000/svg">
<path fill-rule="evenodd" clip-rule="evenodd" d="M21.7499,15.9999c0,2.6234 -2.1267,4.75 -4.75,4.75c-2.6234,0 -4.75,-2.1266 -4.75,-4.75c0,-2.6233 2.1266,-4.75 4.75,-4.75c2.6233,0 4.75,2.1267 4.75,4.75zM5.49988,14.2499c-1.79493,0 -3.25,1.4551 -3.25,3.25c0,1.795 1.45507,3.25 3.25,3.25c1.79492,0 3.25,-1.455 3.25,-3.25c0,-1.7949 -1.45508,-3.25 -3.25,-3.25zM11.9999,5.7746c0,-0.41422 0.3358,-0.75 0.75,-0.75h2.25c0.3592,0 0.668,0.25474 0.7363,0.60745l2,10.33065c0.0787,0.4067 -0.1871,0.8001 -0.5938,0.8789c-0.4066,0.0787 -0.8001,-0.1871 -0.8789,-0.5938l-1.0772,-5.5644c-0.1721,0.0152 -0.3993,0.0377 -0.6669,0.0694c-0.6306,0.0747 -1.4771,0.1999 -2.351,0.4014c-1.0544,0.2432 -1.9332,0.9087 -2.56992,1.5595c-0.31376,0.3207 -0.5566,0.6255 -0.71995,0.8487c-0.08142,0.1112 -0.14238,0.2012 -0.18184,0.2615c-0.01972,0.0301 -0.03401,0.0527 -0.04276,0.0668l-0.00893,0.0144l-0.00048,0.0008l-0.00022,0.0004l-0.00019,0.0003l-0.00925,0.0151l-2.5,3.9774c-0.22043,0.3507 -0.68341,0.4563 -1.0341,0.2359c-0.35069,-0.2204 -0.45629,-0.6834 -0.23587,-1.0341l2.3049,-3.667l-1.19555,-3.2936h-0.47436c-0.41422,0 -0.75,-0.33576 -0.75,-0.74997c0,-0.41422 0.33578,-0.75 0.75,-0.75h1h2c0.41421,0 0.75,0.33578 0.75,0.75c0,0.41421 -0.33579,0.74997 -0.75,0.74997h-0.92987l0.66609,1.835c0.09011,-0.101 0.18688,-0.205 0.29017,-0.3106c0.73828,-0.7546 1.85943,-1.6387 3.30503,-1.97212c0.9431,-0.21751 1.8465,-0.3506 2.5117,-0.42939c0.2107,-0.02497 0.3984,-0.04458 0.5568,-0.05975l-0.5186,-2.67884h-1.6313c-0.4142,0 -0.75,-0.33579 -0.75,-0.75z" fill="#002B51"/>
</svg>

<svg width="24" height="24" viewBox="0 0 24 24" fill="none" xmlns="http://www.w3.org/2000/svg">
<path fill-rule="evenodd" clip-rule="evenodd" d="M16.9999 11.2499C14.3765 11.2499 12.2499 13.3766 12.2499 15.9999C12.2499 18.6233 14.3765 20.7499 16.9999 20.7499C19.6232 20.7499 21.7499 18.6233 21.7499 15.9999C21.7499 13.3766 19.6232 11.2499 16.9999 11.2499ZM5.49988 14.2499C3.70495 14.2499 2.24988 15.705 2.24988 17.4999C2.24988 19.2949 3.70495 20.7499 5.49988 20.7499C7.2948 20.7499 8.74988 19.2949 8.74988 17.4999C8.74988 15.705 7.2948 14.2499 5.49988 14.2499ZM11.9999 5.7746C11.9999 5.36038 12.3357 5.0246 12.7499 5.0246H14.9999C15.3591 5.0246 15.6679 5.27934 15.7362 5.63205L17.7362 15.9627C17.8149 16.3694 17.5491 16.7628 17.1424 16.8416C16.7358 16.9203 16.3423 16.6545 16.2635 16.2478L15.1863 10.6834C15.0142 10.6986 14.787 10.7211 14.5194 10.7528C13.8888 10.8275 13.0423 10.9527 12.1684 11.1542C11.114 11.3974 10.2352 12.0629 9.59848 12.7137C9.28472 13.0344 9.04188 13.3392 8.87853 13.5624C8.79711 13.6736 8.73615 13.7636 8.69669 13.8239C8.67697 13.854 8.66268 13.8766 8.65393 13.8907L8.645 13.9051L8.64452 13.9059L8.6443 13.9063L8.64411 13.9066L8.63486 13.9217L6.13486 17.8991C5.91443 18.2498 5.45145 18.3554 5.10076 18.135C4.75007 17.9146 4.64447 17.4516 4.86489 17.1009L7.16979 13.4339L5.97424 10.1403H5.49988C5.08566 10.1403 4.74988 9.80454 4.74988 9.39033C4.74988 8.97611 5.08566 8.64033 5.49988 8.64033H6.49988H8.49988C8.91409 8.64033 9.24988 8.97611 9.24988 9.39033C9.24988 9.80454 8.91409 10.1403 8.49988 10.1403H7.57001L8.2361 11.9753C8.32621 11.8743 8.42298 11.7703 8.52627 11.6647C9.26455 10.9101 10.3857 10.026 11.8313 9.69258C12.7744 9.47507 13.6778 9.34198 14.343 9.26319C14.5537 9.23822 14.7414 9.21861 14.8998 9.20344L14.3812 6.5246H12.7499C12.3357 6.5246 11.9999 6.18881 11.9999 5.7746Z" fill="#002B51"/>
</svg>
